X: 2191
T: Şu Güzele Bir Bakın
C: Şemseddin Ziya Bey
O: Turkey
F: http://compmusic.upf.edu/node/140
N: mahur--sarki--aksak--su_guzele--semseddin_ziya_bey
N: makam= mahur
N: form= sarki
N: usul= aksak = 9/8
M: 9/8
L: 1/16
K: C ^9/8f   
Q: 1/4=198
%%MIDI tuningsystem comma53
g2a2 b4 z4 b2a2 g2 | c'3bc'2 d'2c'2 b2a4z2  | \
w:  ARANAĞME  |   | 
f2g2 a4 z4 b2a2 g2 | 
w:   | 
f3ef2 g2f2 e2d2 e2f2  | g4 =f2e2 d4 e2d2 c2 | \
w:   |   | 
B3AB2 c2B2 A2G4z2  | 
w:   | 
A3G A2c2 B4 A2G2 F2 | G6 D2E2 F2G4z2  | \
w:   |   | 
g2a2 b4 z4 b2a2 g2 | 
w:  ARANAĞME  | 
c'3bc'2 d'2c'2 b2a4z2  | f2g2 a4 z4 b2a2 g2 | \
w:   |   | 
f3ef2 g2f2 e2d2 e2f2  | 
w:   | 
g4 =f2e2 d4 e2d2 c2 | B3AB2 c2B2 A2G4z2  | \
w:   |   | 
A3G A2c2 B4 A2G2 F2 | 
w:   | 
G6 D2E2 F2G4z2  | b3a g2f2 e2f2 g4 z2 | \
w:   |  Şu  *  gü *  ze *  le   | 
g4g2 c'2b2 ^a2b4z2  | 
w:  bir  ba *  kın   | 
a4 b4 c'2d'2 b2a2 g2 | b3ag2 f2g4d6  | \
w:  ba kı şı  *  nur   |  sa *  çı *  yor   SAZ  | 
b3a g2f2 e2f2 g4 z2 | 
w:  Şu  *  gü *  ze *  le   | 
g4g2 c'2b2 ^a2b4z2  | a4 b4 c'2d'2 b2a2 g2 | \
w:  bir  ba *  kın   |  ba kı şı  *  nur   | 
b3ag2 f2g4z6  | d2g6 g2f2 g6 | 
w:  sa *  çı *  yor    |  Dö nüp  dö *  nüp   | 
z4c2 e2d2 c2d4z2  | A4 A2c2 B2A2 G4 A2 | \
w:  ba kı yor   |  â hu  *  gi *  bi   | 
B3AG2 F2G4cd efg2  | 
w:  ka *  çı *  yor   SAZ  | 
d2g6 g2f2 g6 | z4c2 e2d2 c2d4z2  | A4 A2c2 B2A2 G4 A2 | \
w:  Dö nüp  dö *  nüp   |  ba kı yor   |  â hu  *  gi *  bi   | 
B3AG2 F2G4b4z2  | 
w:  ka *  çı *  yor   SAZ  | 
b2b6 b4 b2a2 g2 | a4b4c'd' c'bc'4z2  | \
w:  Sı kıl dık ça   |  ha va dan   | 
a4 b4 c'2d'2 b2a2 g2 | 
w:  sî ne si *  ni   | 
b3ag2 f2g4b4z2  | b2b6 b4 b2a2 g2 | a4b4c'd' c'bc'4z2  | 
w:  a *  çı *  yor   SAZ  |  Sı kıl dık ça   |  ha va dan   | 
a4 b4 c'2d'2 b2a2 g2 | b3ag2 f2g4z6  | \
w:  sî ne si *  ni   |  a *  çı *  yor    | 
d2g6 g2f2 g6 | z4c2 e2d2 c2d4z2  | 
w:  Dö nüp  dö *  nüp   |  ba kı yor   | 
A4 A2c2 B2A2 G4 A2 | B3AG2 F2G4cd efg2  | \
w:  â hu  *  gi *  bi   |  ka *  çı *  yor   SAZ  | 
d2g6 g2f2 g6 | 
w:  Dö nüp  dö *  nüp   | 
z4c2 e2d2 c2d4z2  | A4 A2c2 B2A2 G4 A2 | \
w:  ba kı yor   |  â hu  *  gi *  bi   | 
B3AG2 F2G8z2  | |


